X: 1
T:Rambler, The
R:jig
D:Frankie Gavin: Frankie Goes to Town
Z:id:hn-jig-203
M:6/8
K:A
ECE E2A|FEC E2e|fec ABc|dcd BAF|
ECE E2A|FEC E2e|fec ABc|1 ~B3 A2F:|2 ~B3 A3||
|:ecA Ace|~a3 faf|ece fec|~B3 Bcd|
ecA Ace|~a3 faf|ece fec|1 ~B3 A3:|2 ~B3 A2F||
